src/assets/Cross.svg

<svg fill="none" height="12" viewBox="0 0 12 12" width="12" xmlns="http://www.w3.org/2000/svg"><path d="m9.94026 11c.29294.2929.76774.2929 1.06064 0s.2929-.7678 0-1.06067l-3.58576-3.58578c-.19527-.19527-.19527-.51185 0-.70711l3.58576-3.58578c.2929-.2929.2929-.76777 0-1.060662-.2929-.292893-.7677-.292893-1.06064 0l-3.58578 3.585782c-.19527.19526-.51185.19526-.70711 0l-3.58579-3.585791c-.29289-.292893-.76777-.292893-1.06066 0-.292893.292891-.292893.767771 0 1.060661l3.58579 3.58579c.19526.19526.19526.51184 0 .70711l-3.58579 3.58579c-.292893.29286-.292893.76776 0 1.06066.29289.2929.76777.2929 1.06066 0l3.58579-3.58579c.19526-.19527.51185-.19527.70711 0z" fill="#f05142"/></svg>

<svg width="12" height="12" viewBox="0 0 12 12" fill="none" xmlns="http://www.w3.org/2000/svg">
<path d="M9.94026 11C10.2332 11.2929 10.708 11.2929 11.0009 11C11.2938 10.7071 11.2938 10.2322 11.0009 9.93933L7.41514 6.35355C7.21987 6.15828 7.21987 5.8417 7.41514 5.64644L11.0009 2.06066C11.2938 1.76776 11.2938 1.29289 11.0009 0.999998C10.708 0.707105 10.2332 0.707105 9.94026 0.999998L6.35448 4.58578C6.15921 4.78104 5.84263 4.78104 5.64737 4.58578L2.06158 0.999989C1.76869 0.707096 1.29381 0.707096 1.00092 0.999989C0.708027 1.29288 0.708027 1.76776 1.00092 2.06065L4.58671 5.64644C4.78197 5.8417 4.78197 6.15828 4.58671 6.35355L1.00092 9.93934C0.708027 10.2322 0.708027 10.7071 1.00092 11C1.29381 11.2929 1.76869 11.2929 2.06158 11L5.64737 7.41421C5.84263 7.21894 6.15922 7.21894 6.35448 7.41421L9.94026 11Z" fill="#F05142"/>
</svg>
